icons/edit-17.svg

<svg width="16" height="17" viewBox="0 0 16 17" fill="none" xmlns="http://www.w3.org/2000/svg">
<path fill-rule="evenodd" clip-rule="evenodd" d="M12.3069 2.16638C11.8578 2.16638 11.4272 2.34477 11.1096 2.66231L5.95624 7.8157C5.88672 7.88522 5.8374 7.97233 5.81355 8.06772L5.27109 10.2376C5.22488 10.4224 5.27904 10.618 5.41378 10.7527C5.54852 10.8874 5.74407 10.9416 5.92892 10.8954L8.09877 10.3529C8.19416 10.3291 8.28126 10.2798 8.35079 10.2102L13.5042 5.05685C13.8217 4.73932 14.0001 4.30865 14.0001 3.85958C14.0001 3.41052 13.8217 2.97984 13.5042 2.66231C13.1866 2.34477 12.756 2.16638 12.3069 2.16638ZM11.8768 3.42947C11.9909 3.31539 12.1456 3.25131 12.3069 3.25131C12.4682 3.25131 12.6229 3.31539 12.737 3.42947C12.8511 3.54354 12.9152 3.69826 12.9152 3.85958C12.9152 4.02091 12.8511 4.17562 12.737 4.2897L7.68987 9.33685L6.5429 9.62359L6.82964 8.47662L11.8768 3.42947Z" fill="#272431"/>
<path d="M3.62739 3.31714C3.19578 3.31714 2.78185 3.4886 2.47665 3.79379C2.17146 4.09898 2 4.51292 2 4.94453V12.539C2 12.9706 2.17146 13.3845 2.47665 13.6897C2.78185 13.9949 3.19578 14.1664 3.62739 14.1664H11.2219C11.6535 14.1664 12.0674 13.9949 12.3726 13.6897C12.6778 13.3845 12.8493 12.9706 12.8493 12.539V8.74176C12.8493 8.44217 12.6064 8.1993 12.3068 8.1993C12.0072 8.1993 11.7643 8.44217 11.7643 8.74176V12.539C11.7643 12.6829 11.7072 12.8208 11.6054 12.9226C11.5037 13.0243 11.3657 13.0815 11.2219 13.0815H3.62739C3.48352 13.0815 3.34554 13.0243 3.24381 12.9226C3.14208 12.8208 3.08493 12.6829 3.08493 12.539V4.94453C3.08493 4.80066 3.14208 4.66268 3.24381 4.56095C3.34554 4.45922 3.48352 4.40206 3.62739 4.40206H7.42463C7.72422 4.40206 7.96709 4.1592 7.96709 3.8596C7.96709 3.56001 7.72422 3.31714 7.42463 3.31714H3.62739Z" fill="#272431"/>
</svg>

<svg xmlns="http://www.w3.org/2000/svg" width="16" height="17" viewBox="0 0 16 17"><path fill-rule="evenodd" d="M12.307 2.166c-.45 0-.88.179-1.197.496L5.956 7.816a.542.542 0 00-.142.252l-.543 2.17a.542.542 0 00.658.657l2.17-.542a.541.541 0 00.252-.143l5.153-5.153a1.693 1.693 0 00-1.197-2.89zm-.43 1.263a.608.608 0 11.86.86L7.69 9.338l-1.147.287.287-1.147 5.047-5.048z"/><path d="M3.627 3.317A1.627 1.627 0 002 4.945v7.594a1.627 1.627 0 001.627 1.627h7.595a1.627 1.627 0 001.627-1.627V8.742a.542.542 0 00-1.085 0v3.797a.542.542 0 01-.542.543H3.627a.543.543 0 01-.542-.543V4.945a.542.542 0 01.542-.543h3.798a.542.542 0 100-1.085H3.627z"/></svg>
